icons/stretch-16.svg

<svg xmlns="http://www.w3.org/2000/svg" viewBox="0 0 16 16"><path d="M12 6V4.742L8.741 8H10v1H7V6h1v1.327L11.328 4H10V3h3v3zm3 1h1V5h-1zM7 0H5v1h2zm4 0H9v1h2zm2 0v1h2v2h1V0zm2 11h1V9h-1zm0 4h-2v1h3v-3h-1zM1 1h2V0H0v3h1zm0 4H0v2h1zm8 11h2v-1H9zm-9-6h6v6H0zm1 5h4v-4H1z"/><path fill="none" d="M0 0h16v16H0z"/></svg>

<svg id="icons" xmlns="http://www.w3.org/2000/svg" viewBox="0 0 16 16"><defs><style>.cls-1{fill:none;}</style></defs><path d="M12,6V4.74164L8.74127,8H10V9H7V6H8V7.32721L11.32758,4H10V3h3V6Zm3,1h1V5H15ZM7,0H5V1H7Zm4,0H9V1h2Zm2,0V1h2V3h1V0Zm2,11h1V9H15Zm0,4H13v1h3V13H15ZM1,1H3V0H0V3H1ZM1,5H0V7H1ZM9,16h2V15H9ZM0,10H6v6H0Zm1,5H5V11H1Z"/><rect class="cls-1" width="16" height="16"/></svg>
